COLOR/action 16/16/object-unlocked.svg

<svg height="16" width="16" xmlns="http://www.w3.org/2000/svg"><g><path d="m7.9824219 3.5c-1.6493997 0-2.9808381 1.3044079-2.9785157 2.9101562l.0039063 2.5566407h-1.0078125v5.0332031h8v-5.0332031h-1.042969v-.0136719h-1.488281v.0136719h-2.9726562l-.0039063-2.5996094c-.00113-.79395.6655347-1.4335938 1.4902344-1.4335937.8247006 0 1.4882812.63964 1.4882812 1.4335937v.5859375h1.4882809v-.5429688c.001113-1.6050976-1.3271628-2.9101562-2.9765621-2.9101562z" fill="#45a925"/><path d="m7.9824219 3.5c-1.6493997 0-2.980838 1.3044079-2.9785157 2.9101562v.4921876c.0020704-1.6021054 1.3318359-2.9023438 2.9785157-2.9023438 1.6493993 0 2.9776751 1.3050586 2.9765621 2.9101562v-.5c.001113-1.6050976-1.3271628-2.9101562-2.9765621-2.9101562zm1.4863281 5.453125v.0136719h-2.9726562v.5h2.9726562v-.0136719h1.488281v.0136719h1.042969v-.5h-1.042969v-.0136719zm-5.46875.0136719v.5h1.0078125v-.5z" fill="#fff" opacity=".3"/><path d="m7.9824219 4.4335938c-.8246997-.0000002-1.4913644.6396437-1.4902344 1.4335937v.4921875c.0033194-.790261.6682925-1.4257813 1.4902344-1.4257812.8247006 0 1.4882812.63964 1.4882812 1.4335937v-.5c0-.7939537-.6635806-1.4335937-1.4882812-1.4335937zm1.4882812 2.0195312v.5h1.4882809v-.5zm-5.4707031 7.046875v.5h8v-.5z" opacity=".2"/></g></svg>

<?xml version="1.0" encoding="UTF-8" standalone="no"?>
<svg
   xmlns:dc="http://purl.org/dc/elements/1.1/"
   xmlns:cc="http://creativecommons.org/ns#"
   xmlns:rdf="http://www.w3.org/1999/02/22-rdf-syntax-ns#"
   xmlns:svg="http://www.w3.org/2000/svg"
   xmlns="http://www.w3.org/2000/svg"
   xmlns:xlink="http://www.w3.org/1999/xlink"
   xmlns:sodipodi="http://sodipodi.sourceforge.net/DTD/sodipodi-0.dtd"
   xmlns:inkscape="http://www.inkscape.org/namespaces/inkscape"
   width="16"
   height="16"
   version="1.1"
   id="svg4"
   sodipodi:docname="object-unlocked.svg"
   inkscape:version="0.92.4 (5da689c313, 2019-01-14)">
  <metadata
     id="metadata10">
    <rdf:RDF>
      <cc:Work
         rdf:about="">
        <dc:format>image/svg+xml</dc:format>
        <dc:type
           rdf:resource="http://purl.org/dc/dcmitype/StillImage" />
        <dc:title />
      </cc:Work>
    </rdf:RDF>
  </metadata>
  <defs
     id="defs8">
    <linearGradient
       gradientTransform="matrix(0.31914183,0,0,0.31914183,0.27556378,32.814522)"
       id="d-0"
       gradientUnits="userSpaceOnUse"
       x1="34.918625"
       x2="34.761932"
       xlink:href="#a"
       y1="22.817245"
       y2="45.972855" />
    <linearGradient
       id="linearGradient1190">
      <stop
         offset="0"
         stop-color="#fff"
         id="stop2-9" />
      <stop
         offset=".125"
         stop-color="#fff"
         stop-opacity=".098039"
         id="stop4-3" />
      <stop
         offset=".92500001"
         stop-color="#fff"
         stop-opacity=".098039"
         id="stop6-6" />
      <stop
         offset="1"
         stop-color="#fff"
         stop-opacity=".498039"
         id="stop8-0" />
    </linearGradient>
    <filter
       style="color-interpolation-filters:sRGB"
       id="c-6">
      <feBlend
         in2="BackgroundImage"
         mode="multiply"
         id="feBlend16-2" />
    </filter>
    <linearGradient
       gradientTransform="matrix(0.31914183,0,0,0.31914183,0.27556378,32.814522)"
       id="f-6"
       gradientUnits="userSpaceOnUse"
       x1="24.059015"
       x2="25.074343"
       xlink:href="#a"
       y1="1.774151"
       y2="42.46537" />
    <linearGradient
       gradientTransform="matrix(0.31914183,0,0,0.31914183,0.27556378,32.814522)"
       id="e-1"
       gradientUnits="userSpaceOnUse"
       x1="25.065369"
       x2="25.183651"
       y1="5.5256934"
       y2="38.116615">
      <stop
         offset="0"
         stop-color="#fff"
         id="stop20-8" />
      <stop
         offset=".125"
         stop-color="#fff"
         stop-opacity=".098039"
         id="stop22-7" />
      <stop
         offset=".92500001"
         stop-color="#fff"
         stop-opacity=".098039"
         id="stop24-9" />
      <stop
         offset="1"
         stop-color="#fff"
         stop-opacity="0"
         id="stop26-2" />
    </linearGradient>
    <linearGradient
       gradientTransform="matrix(0.34782603,0,0,0.34782603,-0.38573823,31.833195)"
       id="b-0"
       gradientUnits="userSpaceOnUse"
       x1="23.612318"
       x2="27.27836"
       y1="23.79875"
       y2="6.9269948">
      <stop
         offset="0"
         stop-color="#f6f5f4"
         id="stop11-2" />
      <stop
         offset="1"
         stop-color="#e9e7e4"
         id="stop13-3" />
    </linearGradient>
  </defs>
  <sodipodi:namedview
     pagecolor="#ffffff"
     bordercolor="#666666"
     borderopacity="1"
     objecttolerance="10"
     gridtolerance="10"
     guidetolerance="10"
     inkscape:pageopacity="0"
     inkscape:pageshadow="2"
     inkscape:window-width="1920"
     inkscape:window-height="1016"
     id="namedview6"
     showgrid="true"
     inkscape:zoom="64"
     inkscape:cx="3.0124831"
     inkscape:cy="7.4662379"
     inkscape:window-x="0"
     inkscape:window-y="27"
     inkscape:window-maximized="1"
     inkscape:current-layer="g1536"
     inkscape:snap-global="false"
     showguides="true"
     inkscape:guide-bbox="true">
    <inkscape:grid
       type="xygrid"
       id="grid17" />
  </sodipodi:namedview>
  <g
     inkscape:groupmode="layer"
     id="layer2"
     inkscape:label="Layer 2"
     style="display:none"
     sodipodi:insensitive="true">
    <path
       inkscape:connector-curvature="0"
       id="path3689-6"
       style="color:#000000;display:inline;opacity:1;fill:#c7162b;fill-opacity:1;stroke-width:1.49999845;stroke-dashoffset:0.80000001;enable-background:new"
       d="m 8.0433398,0.04505873 c -4.4093907,0 -7.99999071,3.59058997 -7.99999071,7.99999007 0,4.4093902 3.59060001,7.9999902 7.99999071,7.9999902 4.4094002,0 7.9999902,-3.5906 7.9999902,-7.9999902 0,-4.4094001 -3.59059,-7.99999007 -7.9999902,-7.99999007 z"
       inkscape:export-filename="/home/stuart/yaru/icons/Suru/16x16/actions/window-close.png"
       inkscape:export-xdpi="96"
       inkscape:export-ydpi="96" />
    <path
       inkscape:connector-curvature="0"
       style="display:inline;opacity:1;fill:#ffffff;fill-opacity:1;stroke:none;stroke-width:0.60000002;stroke-miterlimit:4;stroke-dasharray:none;stroke-opacity:0.74509804"
       class="ColorScheme-Text"
       d="m 7.9958658,3.0505013 c -1.6499524,0 -2.9811417,1.297562 -2.9782536,2.8937941 L 5.021357,8.01401 c 2.054812,-0.00873 3.1839387,0.018216 5.950982,0.00552 l 0.0018,-2.0752386 C 10.975486,4.3487023 9.6458178,3.0505013 7.9958658,3.0505013 Z m 0,1.4246371 c 0.824977,0 1.489127,0.635388 1.489127,1.424637 l -0.00178,2.1087104 -2.9727301,0.00552 -0.00375,-2.1142346 c -0.0014,-0.7892477 0.6641507,-1.424637 1.4891267,-1.424637 z"
       id="path5-3"
       sodipodi:nodetypes="ssccsscsccssc" />
    <rect
       style="opacity:1;vector-effect:none;fill:#ffffff;fill-opacity:1;stroke:none;stroke-width:1.01737952;stroke-linecap:round;stroke-linejoin:miter;stroke-miterlimit:4;stroke-dasharray:none;stroke-dashoffset:0;stroke-opacity:1;paint-order:stroke fill markers"
       id="rect826"
       width="7.9558058"
       height="4.9375"
       x="4.0129442"
       y="8"
       rx="0"
       ry="0" />
  </g>
  <g
     style="display:inline"
     inkscape:label="Layer 2 copy"
     id="g1536"
     inkscape:groupmode="layer">
    <path
       style="display:inline;opacity:1;fill:#45a925;fill-opacity:1;stroke:none;stroke-width:0.60168487;stroke-miterlimit:4;stroke-dasharray:none;stroke-opacity:0.74509804"
       d="M 7.9824219 3.5 C 6.3330222 3.5 5.0015838 4.8044079 5.0039062 6.4101562 L 5.0078125 8.9667969 L 4 8.9667969 L 4 14 L 12 14 L 12 8.9667969 L 10.957031 8.9667969 L 10.957031 8.953125 L 9.46875 8.953125 L 9.46875 8.9667969 L 6.4960938 8.9667969 L 6.4921875 6.3671875 C 6.4910575 5.5732375 7.1577222 4.9335937 7.9824219 4.9335938 C 8.8071225 4.9335938 9.4707031 5.5732338 9.4707031 6.3671875 L 9.4707031 6.953125 L 10.958984 6.953125 L 10.958984 6.4101562 C 10.960097 4.8050586 9.6318212 3.5 7.9824219 3.5 z "
       id="path1532" />
    <path
       style="display:inline;opacity:0.3;fill:#ffffff;fill-opacity:1;stroke:none;stroke-width:0.60168487;stroke-miterlimit:4;stroke-dasharray:none;stroke-opacity:0.74509804"
       d="M 7.9824219 3.5 C 6.3330222 3.5 5.0015839 4.8044079 5.0039062 6.4101562 L 5.0039062 6.9023438 C 5.0059766 5.3002384 6.3357421 4 7.9824219 4 C 9.6318212 4 10.960097 5.3050586 10.958984 6.9101562 L 10.958984 6.4101562 C 10.960097 4.8050586 9.6318212 3.5 7.9824219 3.5 z M 9.46875 8.953125 L 9.46875 8.9667969 L 6.4960938 8.9667969 L 6.4960938 9.4667969 L 9.46875 9.4667969 L 9.46875 9.453125 L 10.957031 9.453125 L 10.957031 9.4667969 L 12 9.4667969 L 12 8.9667969 L 10.957031 8.9667969 L 10.957031 8.953125 L 9.46875 8.953125 z M 4 8.9667969 L 4 9.4667969 L 5.0078125 9.4667969 L 5.0078125 8.9667969 L 4 8.9667969 z "
       id="path837" />
    <path
       style="display:inline;opacity:0.2;fill:#000000;fill-opacity:1;stroke:none;stroke-width:0.60168487;stroke-miterlimit:4;stroke-dasharray:none;stroke-opacity:0.74509804"
       d="M 7.9824219 4.4335938 C 7.1577222 4.4335936 6.4910575 5.0732375 6.4921875 5.8671875 L 6.4921875 6.359375 C 6.4955069 5.569114 7.16048 4.9335937 7.9824219 4.9335938 C 8.8071225 4.9335938 9.4707031 5.5732338 9.4707031 6.3671875 L 9.4707031 5.8671875 C 9.4707031 5.0732338 8.8071225 4.4335938 7.9824219 4.4335938 z M 9.4707031 6.453125 L 9.4707031 6.953125 L 10.958984 6.953125 L 10.958984 6.453125 L 9.4707031 6.453125 z M 4 13.5 L 4 14 L 12 14 L 12 13.5 L 4 13.5 z "
       id="path842" />
  </g>
</svg>
